X: 744
P: Longways for Eight thus.
M: C|
L: 1/4
K: Gdor
[|\
dd ga | bc'/b/ ag |\
ff f2 | ^F>G A>c | BG GA | Bc/B/ AG |]

